X:143
T: ALLDORT AUF GRUENEN MATTEN
N: B0172
O: Europa, Mitteleuropa, Unter - Oesterreich
R: Natur - Lied, Berg
M: 2/4
L: 1/16
K: F
C2 | F2G2A2B2 | c3dc2
c2 | f2c2c2d2 | c4z2
c2 | c3=Bd2B2 | =B2A2c2
A2 | A3G=B2G2 | F4z2

